X: 1
T: Odessa Bulgar   #2
O: klezmer
N: as played by Mimi Rabson without ornamentation
R: bulgar
S: Fiddle Hell Online 2021-11-11-5
Z: 2022 John Chambers <jc:trillian.mit.edu>
M: 4/4
L: 1/8
K: Gm
DED "^A"|: "Gm"G2D2 B2A2 | G4 zGAB | cBAG AG^FE | "D7"D6 zD || "D7"D^FFF F2ED | "Gm"DGGG "^->"!coda!G4 |
"Cm"AcBA "D7"BAG^F |[1 "Gm"G4 zDED :|[2 "Gm"G4 z2 "F7"F2 "^B":: "Bb"Bddd d2cB | Bddd d2cB | d2e2 d2cB |
"F7"c6 zA || Accc c2BA | Accc c2BA | c2d2 c2BA |[1 "Bb"B6 F2 :|[2 "Bb"B4- BA "D7"B/A/G :|
"^C"|: G4- GcBA | B2AB- BA B/A/G | "G7"G4- GedG | "Cm"c4- c2"F7"F2 | "Bb"B3d fedc || "Gm"BcAB GAB"^->"c!coda! |
"D7"dBcA BGA^F | "Gm"G6 D2 :|[2 "Gm"G4- "^D.S. al Coda"GDED :|\
y!coda![|"D7"Td4- | d/(d/^c/d/ e/=e/f/^f/) | "Gm"g2z2 "D7"d2z2 | "Gm"HG8 |]
